other/beat_game.svg

<svg width="48" height="48" version="1.1" viewBox="0 0 48 48" xmlns="http://www.w3.org/2000/svg">
 <defs>
  <style>.a{fill:none;stroke:#fff;stroke-linecap:round;stroke-linejoin:round;}</style>
  <style>.a{fill:none;stroke:#fff;stroke-linecap:round;stroke-linejoin:round;}</style>
 </defs>
 <g fill="none" stroke="#fff">
  <g stroke-linejoin="round">
   <circle cx="33.478" cy="12.483" r="6.9829" stop-color="#000000" stroke-linecap="round" style="paint-order:markers fill stroke"/>
   <path d="m27.404 16.007s-3.6306 2.8924-2.085 4.3289c1.2128 1.1273 0.78628 0.62454 2.4721-0.22499 0 0-0.41986 2.3623 1.0154 2.3675 0 0-2.5425 1.0155-0.87193 2.3654 0.95634 0.77277 1.9989 1.4168 3.7622-1.1448" stroke-linecap="round"/>
   <path d="m39.528 16.717s4.0524 1.3879 2.2063 3.525c-1.1418 1.3218-2.9159-0.57199-2.9159-0.57199-0.31836 0.01309 0.9363 3.4522-2.075 4.3373-0.97391 1.7427-0.75275 2.7352-2.3281 2.4656-1.6965-0.29038-0.8679-2.7912-0.8679-2.7912s-1.0141-0.19757-1.85 0.01776"/>
  </g>
  <g stroke-linecap="round">
   <circle cx="34.278" cy="12.796" r="2.1987" stop-color="#000000" stroke-linejoin="round" style="paint-order:markers fill stroke"/>
   <path d="m32.687 16.855h2.8893"/>
   <circle cx="14.44" cy="40.366" r="2.1337" stop-color="#000000" stroke-linejoin="round" style="paint-order:markers fill stroke"/>
   <g>
    <path d="m16.574 39.957v-10.974"/>
    <path d="m24.68 12.175-11.742 11.742"/>
    <path d="m32.942 28.104-5.8028 5.8028" stroke-linejoin="round"/>
   </g>
   <g>
    <path d="m24.672 16.477-13.998 13.998"/>
    <path d="m19.27 37.958-1.2713 1.2713"/>
    <path d="m30.103 27.126-3.1327 3.1327"/>
    <path d="m23.574 30.087-5.1816 5.1816"/>
    <path d="m14.59 30.77-3.8196 3.8196"/>
    <path d="m23.204 22.157-4.2966 4.2966"/>
    <path d="m18.517 31.021 1.3618-1.3618"/>
   </g>
   <circle cx="14.44" cy="40.366" r="2.1337" stop-color="#000000" stroke-linejoin="round" style="paint-order:markers fill stroke"/>
   <path d="m16.574 39.957v-10.974"/>
   <circle cx="23.282" cy="37.164" r="2.1337" stop-color="#000000" stroke-linejoin="round" style="paint-order:markers fill stroke"/>
   <path d="m25.416 36.755v-10.974"/>
   <path d="m16.574 28.983 8.8419-3.2024"/>
   <circle cx="7.4812" cy="35.662" r="1.6919" stop-color="#000000" stroke-linejoin="round" style="paint-order:markers fill stroke"/>
   <path d="m9.1732 35.553v-10.974s2.6123 0.60148 2.6511 2.3312" stroke-linejoin="round"/>
  </g>
 </g>
</svg>

<svg xmlns="http://www.w3.org/2000/svg" viewBox="0 0 48 48"><defs><style>.a,.b,.c{fill:none;stroke:#fff;}.a,.c{stroke-linecap:round;}.a,.b{stroke-linejoin:round;}</style></defs><circle class="a" cx="33.4753" cy="12.483" r="6.983"/><path class="a" d="M27.4013,16.007s-3.6307,2.8924-2.0851,4.329c1.2128,1.1273.7863.6245,2.4722-.225,0,0-.42,2.3623,1.0154,2.3675,0,0-2.5426,1.0155-.872,2.3654.9564.7728,1.999,1.4168,3.7623-1.1448"/><path class="b" d="M39.5254,16.717s4.0524,1.3879,2.2063,3.5251c-1.1418,1.3218-2.9159-.572-2.9159-.572-.3184.0131.9363,3.4522-2.075,4.3373-.974,1.7427-.7528,2.7352-2.3282,2.4656-1.6965-.29-.8679-2.7912-.8679-2.7912a4.9165,4.9165,0,0,0-1.85.0178"/><circle class="a" cx="34.2753" cy="12.796" r="2.1987"/><path class="c" d="M32.6843,16.855h2.8893"/><circle class="a" cx="14.4371" cy="40.3663" r="2.1337"/><path class="c" d="M16.5711,39.9573V28.9832"/><path class="c" d="M24.6772,12.175,12.9351,23.9171"/><path class="a" d="M32.9393,28.1041,27.1365,33.907"/><path class="c" d="M24.6692,16.477,10.6711,30.4752"/><path class="c" d="M19.2672,37.9582,17.9959,39.23"/><path class="c" d="M30.1,27.1261l-3.1327,3.1328"/><path class="c" d="M23.5712,30.0872,18.39,35.2688"/><path class="c" d="M14.5871,30.77l-3.82,3.82"/><path class="c" d="M23.2012,22.1571l-4.2966,4.2966"/><path class="c" d="M18.5142,31.0212l1.3618-1.3618"/><circle class="a" cx="14.4371" cy="40.3663" r="2.1337"/><path class="c" d="M16.5711,39.9573V28.9832"/><circle class="a" cx="23.2792" cy="37.1642" r="2.1337"/><path class="c" d="M25.4132,36.7552V25.7811"/><path class="c" d="M16.5711,28.9832l8.842-3.2025"/><circle class="a" cx="7.4782" cy="35.6622" r="1.6919"/><path class="a" d="M9.17,35.5532V24.5791s2.6123.6015,2.6511,2.3312"/></svg>
